assets/svg/clock.svg

<svg height="384pt" viewBox="0 0 384 384" width="384pt" xmlns="http://www.w3.org/2000/svg"><path d="m343.59375 101.039062c-7.953125 3.847657-11.28125 13.417969-7.433594 21.367188 10.511719 21.714844 15.839844 45.121094 15.839844 69.59375 0 88.222656-71.777344 160-160 160s-160-71.777344-160-160 71.777344-160 160-160c36.558594 0 70.902344 11.9375 99.328125 34.519531 6.894531 5.503907 16.976563 4.351563 22.480469-2.566406 5.503906-6.914063 4.351562-16.984375-2.570313-22.480469-33.652343-26.746094-76-41.472656-119.238281-41.472656-105.863281 0-192 86.136719-192 192s86.136719 192 192 192 192-86.136719 192-192c0-29.335938-6.40625-57.449219-19.039062-83.527344-3.839844-7.96875-13.441407-11.289062-21.367188-7.433594zm0 0"/><path d="m192 64c-8.832031 0-16 7.167969-16 16v112c0 8.832031 7.167969 16 16 16h80c8.832031 0 16-7.167969 16-16s-7.167969-16-16-16h-64v-96c0-8.832031-7.167969-16-16-16zm0 0"/></svg>

<?xml version="1.0" encoding="UTF-8"?>
<svg width="384px" height="384px" viewBox="0 0 384 384" version="1.1" xmlns="http://www.w3.org/2000/svg" xmlns:xlink="http://www.w3.org/1999/xlink">
    <title>clock</title>
    <g id="Page-1" stroke="none" stroke-width="1" fill="none" fill-rule="evenodd">
        <g id="clock" fill="#000000" fill-rule="nonzero">
            <path d="M343.59375,101.039062 C335.640625,104.886719 332.3125,114.457031 336.160156,122.40625 C346.671875,144.121094 352,167.527344 352,192 C352,280.222656 280.222656,352 192,352 C103.777344,352 32,280.222656 32,192 C32,103.777344 103.777344,32 192,32 C228.558594,32 262.902344,43.9375 291.328125,66.519531 C298.222656,72.023438 308.304688,70.871094 313.808594,63.953125 C319.3125,57.039062 318.160156,46.96875 311.238281,41.472656 C277.585938,14.726562 235.238281,0 192,0 C86.136719,0 -2.84217094e-14,86.136719 -2.84217094e-14,192 C-2.84217094e-14,297.863281 86.136719,384 192,384 C297.863281,384 384,297.863281 384,192 C384,162.664062 377.59375,134.550781 364.960938,108.472656 C361.121094,100.503906 351.519531,97.183594 343.59375,101.039062 Z" id="Path"></path>
            <path d="M192,64 C183.167969,64 176,71.167969 176,80 L176,192 C176,200.832031 183.167969,208 192,208 L272,208 C280.832031,208 288,200.832031 288,192 C288,183.167969 280.832031,176 272,176 L208,176 L208,80 C208,71.167969 200.832031,64 192,64 Z" id="Path"></path>
        </g>
    </g>
</svg>
